!! 00000] TT[00
!! NN
!!!OTL: Ya ru
!!!ARE: Xinjiang, Kashi (SÅd)
!! Ethnic Group: Weiwuer
!! IV, 413
!!!SCT: C0424A
!!!YEM: Copyright 1995, estate of Helmut Schaffrath.
**kern
*ICvox
*Ivox
!! Mixed meters:  2/4; 3/4
*M3/4
*k[b-e-]
*B-:
{8r
16ff#
16ff#
8gg
[4.aa
=1
*M2/4
2aa]
=2
[4aa]
8.aa]
16aa
=3
*M3/4
4bb-
4aa
8.gg
16bb-
=4
4.aa
4.r}
=5
*M2/4
{2bb-
=6
*M3/4
4ccc
4bb-
8.aa
16bb-
=7
*M2/4
8aa
[4.gg
=8
2gg]}
=9
{8bb-
4bb-
8ccc
=10
8ccc
16ccc
16bb-
[4aa
=11
*M3/4
2aa]
8bb-
8aa}
=12
*M2/4
{[2gg
=13
8.gg]
16bb-
16aa
16bb-
16aa
16gg
=14
16aa
16gg
[4.ff#
=15
8.ff#]
16aa
4gg}
=16
{8r
16dd
16ee-
8ff#
[8gg
=17
2gg_
=18
2gg]}
=19
{8.bb-
16ccc
8.aa
16bb-
=20
8.gg
16aa
4ff#
=21
4ee-}
{8.gg
16aa
=22
8ff#
8ee-
8ee-
8dd
=23
[2dd
=24
2dd]}
=25
{[2gg
=26
8.gg]
16bb-
16aa
16bb-
16aa
16gg
=27
16aa
16gg
8ff#
8ee-
8dd}
=28
{8ff#
16ee-
16ee-
16ee-
16gg
8dd
=29
[2dd
=30
2dd]}
==
!!!AGN: Aiqing gequ
!! +++Dieses Lied wurde GETEILT!!! Der 2. Teil ist im folgenden Dokument
!!    unter gleicher Signatur B kodiert.
!!    Vereinzelt Verzierungen. Vor- und Zwischenspiele weggelassen.
!!!ONB: ESAC (Essen Associative Code) Database: CHINA
!!!AMT: irregular
!!!AIN: vox
!!!EED: Helmut Schaffrath
!!!EEV: 1.0
*-
!!!ONB: Tied note syntax fixed by Craig Sapp, 2004/05/03/
